X:1947
T:Bourre  six de Briantes
R:bourre  2 temps
C:trad
A:Berry
O:France
M:2/4
L:1/8
Q:1/4=150
K:C
|:c2G2|E2C2|D>E FD|E>F GG|c2G2|E2C2|D>F ED|1C4:|2C3 G|
|:E>G EG|A2F2|A>c BA|G3 G| E>G EG|A2A2|GF ED|C3 G:||
